Adwaita++/apps/16/gravit.svg

<svg height="16" viewBox="0 0 16 16" width="16" xmlns="http://www.w3.org/2000/svg">
  <path d="m14.545 2.909c-.536 0-1 .295-1.253.727h-3.11v-.727c0-.4-.327-.727-.727-.727h-2.91c-.4 0-.727.327-.727.727v.727h-3.11c-.253-.432-.717-.727-1.253-.727-.804 0-1.455.651-1.455 1.455 0 .803.651 1.454 1.455 1.454.536 0 1-.295 1.253-.727h1.125c-.611 1.12-.924 2.747-.924 4.364h-.727c-.4 0-.727.327-.727.727v2.909c0 .4.327.727.727.727h2.909c.4 0 .727-.327.727-.727v-2.909c0-.4-.327-.727-.727-.727h-.727c0-2.708.943-4.364 1.454-4.364v.727c0 .4.327.727.727.727h2.91c.4 0 .727-.327.727-.727v-.727c.511 0 1.454 1.656 1.454 4.364h-.727c-.4 0-.727.327-.727.727v2.909c0 .4.327.727.727.727h2.909c.4 0 .727-.327.727-.727v-2.909c0-.4-.327-.727-.727-.727h-.727c0-1.617-.313-3.244-.924-4.364h1.125c.253.432.717.727 1.253.727.804 0 1.455-.651 1.455-1.454 0-.804-.651-1.455-1.455-1.455z" fill="#474747"/>
</svg>

<svg xmlns="http://www.w3.org/2000/svg" style="isolation:isolate" width="16" height="16" viewBox="0 0 16 16">
 <defs>
  <style id="current-color-scheme" type="text/css">
   .ColorScheme-Text { color:#474747; } .ColorScheme-Highlight { color:#5294e2; }
  </style>
  <linearGradient id="arrongin" x1="0%" x2="0%" y1="0%" y2="100%">
   <stop offset="0%" style="stop-color:#dd9b44"/>
   <stop offset="100%" style="stop-color:#ad6c16"/>
  </linearGradient>
  <linearGradient id="aurora" x1="0%" x2="0%" y1="0%" y2="100%">
   <stop offset="0%" style="stop-color:#09D4DF"/>
   <stop offset="100%" style="stop-color:#9269F4"/>
  </linearGradient>
  <linearGradient id="fitdance" x1="0%" x2="0%" y1="0%" y2="100%">
   <stop offset="0%" style="stop-color:#1AD6AB"/>
   <stop offset="100%" style="stop-color:#329DB6"/>
  </linearGradient>
  <linearGradient id="oomox" x1="0%" x2="0%" y1="0%" y2="100%">
   <stop offset="0%" style="stop-color:#efefe7"/>
   <stop offset="100%" style="stop-color:#8f8f8b"/>
  </linearGradient>
  <linearGradient id="rainblue" x1="0%" x2="0%" y1="0%" y2="100%">
   <stop offset="0%" style="stop-color:#00F260"/>
   <stop offset="100%" style="stop-color:#0575E6"/>
  </linearGradient>
  <linearGradient id="sunrise" x1="0%" x2="0%" y1="0%" y2="100%">
   <stop offset="0%" style="stop-color:#FF8501"/>
   <stop offset="100%" style="stop-color:#FFCB01"/>
  </linearGradient>
  <linearGradient id="telinkrin" x1="0%" x2="0%" y1="0%" y2="100%">
   <stop offset="0%" style="stop-color:#b2ced6"/>
   <stop offset="100%" style="stop-color:#6da5b7"/>
  </linearGradient>
  <linearGradient id="60spsycho" x1="0%" x2="0%" y1="0%" y2="100%">
   <stop offset="0%" style="stop-color:#df5940"/>
   <stop offset="25%" style="stop-color:#d8d15f"/>
   <stop offset="50%" style="stop-color:#e9882a"/>
   <stop offset="100%" style="stop-color:#279362"/>
  </linearGradient>
  <linearGradient id="90ssummer" x1="0%" x2="0%" y1="0%" y2="100%">
   <stop offset="0%" style="stop-color:#f618c7"/>
   <stop offset="20%" style="stop-color:#94ffab"/>
   <stop offset="50%" style="stop-color:#fbfd54"/>
   <stop offset="100%" style="stop-color:#0f83ae"/>
  </linearGradient>
 </defs>
 <path style="fill:currentColor" class="ColorScheme-Text" d="M 14.545 2.909 C 14.009 2.909 13.545 3.204 13.292 3.636 L 10.182 3.636 L 10.182 2.909 C 10.182 2.509 9.855 2.182 9.455 2.182 L 6.545 2.182 C 6.145 2.182 5.818 2.509 5.818 2.909 L 5.818 3.636 L 2.708 3.636 C 2.455 3.204 1.991 2.909 1.455 2.909 C 0.651 2.909 0 3.56 0 4.364 C 0 5.167 0.651 5.818 1.455 5.818 C 1.991 5.818 2.455 5.523 2.708 5.091 L 3.833 5.091 C 3.222 6.211 2.909 7.838 2.909 9.455 L 2.182 9.455 C 1.782 9.455 1.455 9.782 1.455 10.182 L 1.455 13.091 C 1.455 13.491 1.782 13.818 2.182 13.818 L 5.091 13.818 C 5.491 13.818 5.818 13.491 5.818 13.091 L 5.818 10.182 C 5.818 9.782 5.491 9.455 5.091 9.455 L 4.364 9.455 C 4.364 6.747 5.307 5.091 5.818 5.091 L 5.818 5.818 C 5.818 6.218 6.145 6.545 6.545 6.545 L 9.455 6.545 C 9.855 6.545 10.182 6.218 10.182 5.818 L 10.182 5.091 C 10.693 5.091 11.636 6.747 11.636 9.455 L 10.909 9.455 C 10.509 9.455 10.182 9.782 10.182 10.182 L 10.182 13.091 C 10.182 13.491 10.509 13.818 10.909 13.818 L 13.818 13.818 C 14.218 13.818 14.545 13.491 14.545 13.091 L 14.545 10.182 C 14.545 9.782 14.218 9.455 13.818 9.455 L 13.091 9.455 C 13.091 7.838 12.778 6.211 12.167 5.091 L 13.292 5.091 C 13.545 5.523 14.009 5.818 14.545 5.818 C 15.349 5.818 16 5.167 16 4.364 C 16 3.56 15.349 2.909 14.545 2.909 Z"/>
</svg>
